packages/foundations/assets/icons/functional/images/human/shower_women_24.svg

<svg width="24" height="24" viewBox="0 0 24 24" fill="none" xmlns="http://www.w3.org/2000/svg">
<g clip-path="url(#clip0_185_1192)">
<path fill-rule="evenodd" clip-rule="evenodd" d="M10.1576 15.9999C11.2003 15.9999 12.1143 16.7079 12.3294 17.7167L12.9782 20.7785C13.0927 21.3188 12.7476 21.8496 12.2073 21.9641C11.667 22.0786 11.1362 21.7334 11.0217 21.1931L10.3731 18.1326C10.3617 18.0792 10.3027 17.9999 10.1576 17.9999H4.8465C4.72927 17.9999 4.64401 18.0659 4.63005 18.1313L3.97824 21.2072C3.86374 21.7475 3.33294 22.0926 2.79265 21.9782C2.25237 21.8637 1.90719 21.3329 2.02168 20.7926L2.67377 17.7154C2.87677 16.7636 3.76585 15.9999 4.8465 15.9999H10.1576ZM17.53 12.6519C17.9983 12.9443 18.1409 13.5611 17.8482 14.0292C17.5555 14.4973 16.9387 14.6398 16.4703 14.3472C16.0018 14.0547 15.8594 13.4381 16.1521 12.97C16.4446 12.5017 17.0616 12.3594 17.53 12.6519ZM13.5022 12.1359C13.9798 12.4139 14.1419 13.026 13.8644 13.503C13.5868 13.9802 12.9749 14.1418 12.4975 13.8638C12.0202 13.5858 11.858 12.9738 12.1356 12.4965C12.4129 12.0195 13.0248 11.858 13.5022 12.1359ZM21.8641 12.4975C22.1418 12.9749 21.9802 13.5868 21.5033 13.8644C21.0261 14.1418 20.414 13.9796 20.1361 13.5022C19.8581 13.0246 20.0194 12.4127 20.4966 12.1353C20.9738 11.858 21.5861 12.0201 21.8641 12.4975ZM7.51949 6.93768C9.44995 6.93768 11 8.48769 11 10.4182C11 12.3514 9.44749 13.9377 7.51949 13.9377C5.58902 13.9377 3.99996 12.3486 3.99996 10.4182C3.99996 8.49015 5.58628 6.93768 7.51949 6.93768ZM7.51949 8.93768C6.68131 8.93768 5.99996 9.60449 5.99996 10.4182C5.99996 11.244 6.69359 11.9377 7.51949 11.9377C8.33315 11.9377 8.99996 11.2563 8.99996 10.4182C8.99996 9.59226 8.34538 8.93768 7.51949 8.93768ZM17.5298 9.65191C17.9985 9.94428 18.1409 10.5609 17.8482 11.0291C17.5556 11.4974 16.9386 11.6397 16.4701 11.3472C16.0018 11.0548 15.8594 10.4382 16.152 9.96985C16.4447 9.50169 17.0617 9.35938 17.5298 9.65191ZM14.5023 9.13593C14.9797 9.4139 15.1419 10.026 14.8645 10.5032C14.5869 10.9804 13.975 11.1417 13.4976 10.8638C13.0202 10.586 12.8581 9.97372 13.1354 9.49674C13.4128 9.01953 14.0249 8.85795 14.5023 9.13593ZM20.8639 9.49746C21.1419 9.97484 20.9803 10.5868 20.5033 10.8644C20.0261 11.1417 19.414 10.9798 19.136 10.5022C18.858 10.0248 19.0196 9.41284 19.4966 9.13549C19.9738 8.85791 20.5859 9.02008 20.8639 9.49746ZM17 1.99988C17.5128 1.99988 17.9932 2.41348 17.9932 2.99988L18.0006 5.52933C19.0823 5.593 20.1632 5.75991 21.2425 6.02974C21.7783 6.16368 22.1041 6.70662 21.9701 7.24241C21.8362 7.77821 21.2932 8.10397 20.7574 7.97002C19.5028 7.65637 18.2509 7.49988 17 7.49988C15.749 7.49988 14.4971 7.65637 13.2425 7.97002C12.7067 8.10397 12.1638 7.77821 12.0298 7.24241C11.8959 6.70662 12.2216 6.16368 12.7574 6.02974C13.8371 5.75982 14.9183 5.5929 16.0003 5.52927L16 2.99988C16 2.44759 16.4477 1.99988 17 1.99988Z" fill="#1A1C1F"/>
</g>
<defs>
<clipPath id="clip0_185_1192">
<rect width="24" height="24" fill="white"/>
</clipPath>
</defs>
</svg>

<svg xmlns="http://www.w3.org/2000/svg" width="24" height="24" fill="none"><g clip-path="url(#a)"><path fill="#1A1C1F" fill-rule="evenodd" d="M10.158 16c1.042 0 1.956.708 2.171 1.717l.65 3.062a1 1 0 1 1-1.957.414l-.649-3.06c-.011-.054-.07-.133-.215-.133H4.847c-.118 0-.203.066-.217.131l-.652 3.076a1 1 0 1 1-1.956-.414l.652-3.078C2.877 16.764 3.766 16 4.847 16zm7.372-3.348a1 1 0 1 1-1.058 1.695 1 1 0 0 1 1.058-1.695m-4.028-.516a1 1 0 1 1-1.005 1.73 1 1 0 0 1 1.005-1.73m8.362.362a1 1 0 1 1-1.728 1.006 1 1 0 0 1 1.728-1.006M7.52 6.938A3.47 3.47 0 0 1 11 10.418c0 1.933-1.553 3.52-3.48 3.52-1.931 0-3.52-1.59-3.52-3.52 0-1.928 1.586-3.48 3.52-3.48m0 2c-.838 0-1.519.667-1.519 1.48 0 .826.694 1.52 1.52 1.52.813 0 1.48-.682 1.48-1.52a1.47 1.47 0 0 0-1.48-1.48m10.01.714a.999.999 0 1 1-1.059 1.695 1 1 0 1 1 1.06-1.695m-3.027-.516a1 1 0 1 1-1.006 1.73 1 1 0 0 1 1.006-1.73m6.362.361a1 1 0 1 1-1.727 1.007 1 1 0 0 1 1.727-1.007M17 2c.513 0 .993.414.993 1l.008 2.53a17.6 17.6 0 0 1 3.241.5 1 1 0 1 1-.485 1.94A15.4 15.4 0 0 0 17 7.5q-1.876 0-3.758.47a1 1 0 0 1-.485-1.94A17.6 17.6 0 0 1 16 5.53V3a1 1 0 0 1 1-1" clip-rule="evenodd"/></g><defs><clipPath id="a"><path fill="#fff" d="M0 0h24v24H0z"/></clipPath></defs></svg>
